lib/svgs/underline.svg

<svg xmlns="http://www.w3.org/2000/svg" viewBox="0 0 20 20">
    <path fill="#000" fill-rule="evenodd" d="M4.6,15.8 L15.2599731,15.8 C15.591344,15.8 15.8599731,15.5313708 15.8599731,15.2 C15.8599731,14.8686292 15.591344,14.6 15.2599731,14.6 L4.6,14.6 C4.26862915,14.6 4,14.8686292 4,15.2 C4,15.5313708 4.26862915,15.8 4.6,15.8 L4.6,15.8 L4.6,15.8 Z M12.7204969,5.2 L12.7204969,9.92919255 C12.7204969,11.4707858 11.4707906,12.720492 9.92919739,12.720492 C8.38759569,12.720492 7.1378882,11.470787 7.1378882,9.92919255 L7.1378882,5.2 L7.5068323,5.2 L7.5068323,4 L5.5689441,4 L5.5689441,5.2 L5.9378882,5.2 L5.9378882,9.92919255 C5.9378882,12.1335293 7.72485452,13.920492 9.92919739,13.920492 C12.1335323,13.920492 13.9204969,12.1335275 13.9204969,9.92919255 L13.9204969,5.2 L14.289441,5.2 L14.289441,4 L12.3515528,4 L12.3515528,5.2 L12.7204969,5.2 L12.7204969,5.2 L12.7204969,5.2 Z"/>
</svg>

<svg xmlns="http://www.w3.org/2000/svg" viewBox="0 0 20 20">
    <path fill="#000" fill-rule="evenodd" d="M4.6 15.8h10.66a.6.6 0 1 0 0-1.2H4.6a.6.6 0 0 0 0 1.2m8.12-10.6v4.73a2.791 2.791 0 1 1-5.582 0V5.2h.369V4H5.569v1.2h.369v4.73a3.991 3.991 0 0 0 7.982 0V5.2h.37V4h-1.938v1.2h.368"/>
</svg>
